X: 35120
T: Rolling Waves, The
R: jig
M: 6/8
K: Dmajor
A2G|:F2E EDE|F2D DED|F2E EFA|d2e fdA|
F2E EDE|FEF DEF|AFE EFA|1 B3 BAG:|2 B3 d2B||
|:ABd e2f|d2c B2A|AB/c/d edf|d2A B3|
[1 ABd ede|fdB BAF|AFE EFA|B3 d2B:|
[2 ABd efg|fdB BAF|FED EFA|d2e fdA||

